X: 1
T: Cheat River
M: 4/4
L: 1/8
R: reel
K: Dmaj
DEDF A2BA|ABAE FDEF|G2B2 AGAB|ABAG AGFE|
DEDF A2BA|ABAE FEDB|ABDE FEDC|D2D2 F2D2:|
fefe d2de|f2a2 abag|fefe d2f2|edcb agfe|
fefe d2de|f2a2 abag|fedf edce|dBAF D2D2:|
